dist/svg/user-o.svg

<svg width="16" height="16" viewBox="0 0 16 16" fill="rgb(34, 34, 34)" xmlns="http://www.w3.org/2000/svg"><title>user-o</title><path d="M13.943 10.116C12.949 9.11499 11.732 8.33799 10.372 7.86399L10.306 7.84399C11.493 7.08399 12.268 5.77199 12.268 4.27999C12.268 4.27499 12.268 4.27099 12.268 4.26599V4.26699C12.268 1.90999 10.357 -0.00201416 7.99899 -0.00201416C5.64099 -0.00201416 3.72999 1.90899 3.72999 4.26699C3.72999 4.27099 3.72999 4.27499 3.72999 4.27999C3.72999 5.77299 4.50499 7.08399 5.67499 7.83399L5.69199 7.84399C4.26599 8.33799 3.04899 9.11499 2.05599 10.115L2.05499 10.116C1.11899 11.067 -0.484007 13.256 0.136993 14.738C0.487993 15.576 1.41399 16.001 2.88799 16.001H13.107C14.582 16.001 15.507 15.576 15.858 14.738C16.479 13.256 14.876 11.067 13.94 10.116H13.943ZM14.938 14.386C14.725 14.894 13.851 15 13.155 15H2.84499C2.14899 15 1.27499 14.894 1.06199 14.386C0.725993 13.583 1.83899 11.84 2.77199 10.891C3.77699 9.87699 5.04099 9.12199 6.45699 8.73399L6.51499 8.71999L6.92399 8.61899V7.28299L6.61799 7.13699C5.51699 6.60699 4.77099 5.49899 4.77099 4.21799C4.77099 2.43399 6.21699 0.987986 8.00099 0.987986C9.78499 0.987986 11.231 2.43399 11.231 4.21799C11.231 5.49999 10.485 6.60699 9.40299 7.12899L9.38399 7.13699L9.07799 7.28299V8.61899L9.48699 8.71999C10.961 9.12199 12.225 9.87699 13.229 10.89L13.23 10.891C14.163 11.84 15.276 13.582 14.94 14.386H14.938Z" fill="rgb(34, 34, 34)" fill-opacity="1.00"/></svg>

<!-- Generated by Trend Micro Style Portal -->
<svg version="1.1" xmlns="http://www.w3.org/2000/svg" width="16" height="16" viewBox="0 0 16 16">
  <title>user-o</title>
  <path fill="rgb(34,34,34)" d="M13.943 10.116c-0.994-1.001-2.211-1.778-3.571-2.252l-0.066-0.020c1.187-0.76 1.962-2.072 1.962-3.564 0-0.005 0-0.009-0-0.014v0.001c0-2.357-1.911-4.269-4.269-4.269s-4.269 1.911-4.269 4.269v0c-0 0.004-0 0.008-0 0.013 0 1.493 0.775 2.804 1.945 3.554l0.017 0.010c-1.426 0.494-2.643 1.271-3.636 2.271l-0.001 0.001c-0.936 0.951-2.539 3.14-1.918 4.622 0.351 0.838 1.277 1.263 2.751 1.263h10.219c1.475 0 2.4-0.425 2.751-1.263 0.621-1.482-0.982-3.671-1.918-4.622zM14.938 14.386c-0.213 0.508-1.087 0.614-1.783 0.614h-10.31c-0.696 0-1.57-0.106-1.783-0.614-0.336-0.803 0.777-2.546 1.71-3.495 1.005-1.014 2.269-1.769 3.685-2.157l0.058-0.014 0.409-0.101v-1.336l-0.306-0.146c-1.101-0.53-1.847-1.638-1.847-2.919 0-1.784 1.446-3.23 3.23-3.23s3.23 1.446 3.23 3.23c0 1.282-0.746 2.389-1.828 2.911l-0.019 0.008-0.306 0.146v1.336l0.409 0.101c1.474 0.402 2.738 1.157 3.742 2.17l0.001 0.001c0.933 0.949 2.046 2.691 1.71 3.495z"></path>
</svg>
